X: 7900
T: Con Cronin's
R: polka
M: 2/4
K: Amajor
|:E>F Ac|B>c BA|Fd c/d/e/c/|A>B c/B/A/F/|
E>F Ac|B>c BA|Fd c/d/e/c/|1 A>B c/B/A/F/:|2 A2 e/f/e/d/||
|:c>d e/f/e/c/|dc BA|c>d e/f/e/c/|dc B2|
c>d e/f/e/c/|dc BA|Fd c/d/e/c/|1 A2 e/f/e/d/:|2 A>B c/B/A/F/||

